source/svgs/bowtie/uE982-save.svg

<svg xmlns="http://www.w3.org/2000/svg" viewBox="0 0 448 448"><path d="M224 448h-64v-96h64v96zm224 0h-96v-160h-256v160h-32l-64-64v-383.998h448v447.998zm-64-256v-128h-320v128h320z"/></svg>

<svg xmlns="http://www.w3.org/2000/svg" viewBox="0 0 448 448"><path d="M224 448h-64v-96h64v96zm224 0h-96V288H96v160H64L0 384V.002h448V448zm-64-256V64H64v128h320z"/></svg>
